src/icons/icons_set_02/056-horse.svg

<svg height="50" viewBox="0 0 50 50" width="50" xmlns="http://www.w3.org/2000/svg"><path d="m35.4776039 26.9246064.1821805-.1865787c-.5328004 3.5860209-.0240156 5.8151122 1.5263544 6.6872741v4.0440625c.3684048 1.9593469.8515647 2.9390204 1.4494797 2.9390204 0 0-1.5901205.2098508-1.5901205 1.5916153 0 0-1.04286 0-3.1285801 0 .7162171-1.5849651 1.2971726-2.5789242 1.7428665-2.9818773 0 0-1.0628774-7.3059872-4.8568523-7.3059872l1.1445274-1.1721589c-.2431898.1297723-.465524.2621129-.6531973.4103412-1.3083568 1.0333677-1.6128849 3.7832267-1.6128849 4.970288 0 .7913742-1.0963013 2.0350854-3.2889038 3.7311335v2.0892722c-2.1034724 0-3.1552086 0-3.1552086 0 0-2.8850798 3.715986-6.1599355 3.1552086-7.007467-.3738517-.5650209-.7821174-2.1705524-1.2247973-4.8165944-1.4193982.6889118-2.6549654 1.0333677-3.7067016 1.0333677-1.5776043 0-4.0632606-2.2074981-4.0632606-1.0333677 0 .7827535.2347371 4.0276833.7042113 9.7347892l-1.3934464 2.0892722h-1.8594785c-.6214355-.5499964-.6214355-.9942054 0-1.3326268.6214354-.3384215 1.0274729-1.3180949 1.2181125-2.9390204-2.8841042-7.1542244-4.5051595-11.5094918-4.8631657-13.0658022-.5370094-2.3344656 0-5.8761935 0-7.8073387 0-1.9311451-1.60829902-.5017209-2.15955011 0s.12946561 1.7822545-1.18691696 2.9619267c-.87758838.7864481-1.96349114.6183457-3.25770826-.5043071.88734051-5.5359248 1.33101076-8.6001907 1.33101076-9.1927977 0-.88891051-1.70491639-1.62316768-1.33101076-1.80442183.39296208-.19049193 1.47886483.09965397 3.25770826.87043772h2.06633478c2.87602679 0 3.33606859 1.84506201 4.92518549 4.96289891 1.0594113 2.078558 3.2634027 3.9679547 6.6119742 5.66819h7.6243446c3.1963195 0 5.2815032.8923604 6.2555509 2.6770812 2.5571596-.9525636 4.5427496-.4435784 5.9567699 1.5269556 1.4236071 1.9838939 2.047766 4.3799375 1.8724766 7.1881309.39861.8450684 1.3419045 1.2676026 2.8298834 1.2676026 0 0-2.1855464 3.0114337-4.3220712 3.0114337s-3.0423103-2.1062671-3.0423103-3.7093356c0-1.6030684 0-2.3597138 0-4.7819908-.6065659-1.6791851-1.6862007-3.1448912-3.2389043-4.3971183.073137.1430034.139411.2915183.1988222.4455449 0-.756399 0 .199383 0 2.867346 0 .4734712-.0418928.8945821-.1179325 1.2708061zm-24.3237924-2.5949355 1.2541359 4.2998913h-6.47716477v2.3207556c0 1.193342.82074045 2.4544176 2.46222136 3.7832267-.89681059 1.4270844-1.34521589 2.1406266-1.34521589 2.1406266-1.33107265-.3967955-2.34700202-2.1240011-3.0477881-5.1816168 0-3.3030177 0-4.9545266 0-4.9545266 1.24083201-1.6148514 3.62543583-2.4176369 7.1538115-2.4083568z"/></svg>

<?xml version="1.0" encoding="UTF-8"?>
<svg width="50px" height="50px" viewBox="0 0 50 50" version="1.1" xmlns="http://www.w3.org/2000/svg" xmlns:xlink="http://www.w3.org/1999/xlink">
    <!-- Generator: Sketch 52.6 (67491) - http://www.bohemiancoding.com/sketch -->
    <title>056-horse</title>
    <desc>Created with Sketch.</desc>
    <g id="056-horse" stroke="none" stroke-width="1" fill="none" fill-rule="evenodd">
        <path d="M35.4776039,26.9246064 L35.6597844,26.7380277 C35.126984,30.3240486 35.6357688,32.5531399 37.1861388,33.4253018 C37.1861388,33.4253018 37.1861388,34.7733226 37.1861388,37.4693643 C37.5545436,39.4287112 38.0377035,40.4083847 38.6356185,40.4083847 C38.6356185,40.4083847 37.045498,40.6182355 37.045498,42 C37.045498,42 36.002638,42 33.9169179,42 C34.633135,40.4150349 35.2140905,39.4210758 35.6597844,39.0181227 C35.6597844,39.0181227 34.596907,31.7121355 30.8029321,31.7121355 L31.9474595,30.5399766 C31.7042697,30.6697489 31.4819355,30.8020895 31.2942622,30.9503178 C29.9859054,31.9836855 29.6813773,34.7335445 29.6813773,35.9206058 C29.6813773,36.71198 28.585076,37.9556912 26.3924735,39.6517393 L26.3924735,41.7410115 C24.2890011,41.7410115 23.2372649,41.7410115 23.2372649,41.7410115 C23.2372649,38.8559317 26.9532509,35.581076 26.3924735,34.7335445 C26.0186218,34.1685236 25.6103561,32.5629921 25.1676762,29.9169501 C23.748278,30.6058619 22.5127108,30.9503178 21.4609746,30.9503178 C19.8833703,30.9503178 17.397714,28.7428197 17.397714,29.9169501 C17.397714,30.6997036 17.6324511,33.9446334 18.1019253,39.6517393 L16.7084789,41.7410115 L14.8490004,41.7410115 C14.2275649,41.1910151 14.2275649,40.7468061 14.8490004,40.4083847 C15.4704358,40.0699632 15.8764733,39.0902898 16.0671129,37.4693643 C13.1830087,30.3151399 11.5619534,25.9598725 11.2039472,24.4035621 C10.6669378,22.0690965 11.2039472,18.5273686 11.2039472,16.5962234 C11.2039472,14.6650783 9.59564818,16.0945025 9.04439709,16.5962234 C8.493146,17.0979443 9.1738627,18.3784779 7.85748013,19.5581501 C6.97989175,20.3445982 5.89398899,20.1764958 4.59977187,19.053843 C5.48711238,13.5179182 5.93078263,10.4536523 5.93078263,9.8610453 C5.93078263,8.97213479 4.22586624,8.23787762 4.59977187,8.05662347 C4.99273395,7.86613154 6.0786367,8.15627744 7.85748013,8.92706119 C7.31768544,8.92706119 8.00646371,8.92706119 9.92381491,8.92706119 C12.7998417,8.92706119 13.2598835,10.7721232 14.8490004,13.8899601 C15.9084117,15.9685181 18.1124031,17.8579148 21.4609746,19.5581501 C23.0338748,19.5581501 25.575323,19.5581501 29.0853192,19.5581501 C32.2816387,19.5581501 34.3668224,20.4505105 35.3408701,22.2352313 C37.8980297,21.2826677 39.8836197,21.7916529 41.29764,23.7621869 C42.7212471,25.7460808 43.345406,28.1421244 43.1701166,30.9503178 C43.5687266,31.7953862 44.5120211,32.2179204 46,32.2179204 C46,32.2179204 43.8144536,35.2293541 41.6779288,35.2293541 C39.541404,35.2293541 38.6356185,33.123087 38.6356185,31.5200185 C38.6356185,29.9169501 38.6356185,29.1603047 38.6356185,26.7380277 C38.0290526,25.0588426 36.9494178,23.5931365 35.3967142,22.3409094 C35.4698512,22.4839128 35.5361252,22.6324277 35.5955364,22.7864543 C35.5955364,22.0300553 35.5955364,22.9858373 35.5955364,25.6538003 C35.5955364,26.1272715 35.5536436,26.5483824 35.4776039,26.9246064 Z M11.1538115,24.3296709 L12.4079474,28.6295622 L5.93078263,28.6295622 C5.93078263,28.9833906 5.93078263,29.7569757 5.93078263,30.9503178 C5.93078263,32.1436598 6.75152308,33.4047354 8.39300399,34.7335445 C7.4961934,36.1606289 7.0477881,36.8741711 7.0477881,36.8741711 C5.71671545,36.4773756 4.70078608,34.75017 4,31.6925543 C4,28.3895366 4,26.7380277 4,26.7380277 C5.24083201,25.1231763 7.62543583,24.3203908 11.1538115,24.3296709 Z" id="Combined-Shape" fill="#000000" fill-rule="nonzero"></path>
    </g>
</svg>
